polaris-icons/icons/new-icons/FolderMajor.svg

<svg width="20" height="20" viewBox="0 0 20 20" fill="none" xmlns="http://www.w3.org/2000/svg">
<path fill-rule="evenodd" clip-rule="evenodd" d="M5.75 5.5C5.05964 5.5 4.5 6.05964 4.5 6.75V13.25C4.5 13.9404 5.05964 14.5 5.75 14.5H14.25C14.9404 14.5 15.5 13.9404 15.5 13.25V8.75C15.5 8.05964 14.9404 7.5 14.25 7.5H10.868C10.2052 7.5 9.59922 7.1255 9.30279 6.53262L9.13197 6.19098C8.92023 5.7675 8.4874 5.5 8.01393 5.5H5.75ZM3 6.75C3 5.23122 4.23122 4 5.75 4H8.01393C9.05556 4 10.0078 4.58851 10.4736 5.52016L10.6444 5.8618C10.6868 5.9465 10.7733 6 10.868 6H14.25C15.7688 6 17 7.23122 17 8.75V13.25C17 14.7688 15.7688 16 14.25 16H5.75C4.23122 16 3 14.7688 3 13.25V6.75Z" fill="#4A4A4A"/>
</svg>

<svg viewBox="0 0 20 20" xmlns="http://www.w3.org/2000/svg"><path fill-rule="evenodd" d="M5.75 5.5c-.69 0-1.25.56-1.25 1.25v6.5c0 .69.56 1.25 1.25 1.25h8.5c.69 0 1.25-.56 1.25-1.25v-4.5c0-.69-.56-1.25-1.25-1.25h-3.382a1.75 1.75 0 0 1-1.565-.967l-.171-.342a1.25 1.25 0 0 0-1.118-.691h-2.264Zm-2.75 1.25a2.75 2.75 0 0 1 2.75-2.75h2.264a2.75 2.75 0 0 1 2.46 1.52l.17.342a.25.25 0 0 0 .224.138h3.382a2.75 2.75 0 0 1 2.75 2.75v4.5a2.75 2.75 0 0 1-2.75 2.75h-8.5a2.75 2.75 0 0 1-2.75-2.75v-6.5Z" fill="#5C5F62"/></svg>
